icons/box.svg

<svg width="24" height="24" viewBox="0 0 24 24" fill="none" xmlns="http://www.w3.org/2000/svg">
<path fill-rule="evenodd" clip-rule="evenodd" d="M20.7692 3.99998L3.23099 4L3.22972 4.00003L3.22886 4.00073L3.22773 4.00184C3.22604 4.00368 3.22533 4.00525 3.22516 4.00572L3.22509 4.00604L3.22509 4.00605C3.22507 4.00614 3.22494 4.00712 3.22512 4.00933C3.28592 4.75741 3.36759 5.82394 3.44205 7H3.44828H3.45808H3.46798H3.47798H3.48807H3.49826H3.50854H3.51892H3.52939H3.53995H3.55061H3.56136H3.5722H3.58313H3.59416H3.60528H3.61649H3.62779H3.63918H3.65066H3.66223H3.67389H3.68564H3.69748H3.7094H3.72142H3.73352H3.74571H3.75799H3.77035H3.7828H3.79534H3.80797H3.82067H3.83347H3.84635H3.85931H3.87236H3.88549H3.8987H3.912H3.92538H3.93885H3.95239H3.96602H3.97973H3.99352H4.00739H4.02134H4.03538H4.04949H4.06368H4.07795H4.0923H4.10673H4.12124H4.13582H4.15048H4.16522H4.18004H4.19493H4.2099H4.22494H4.24006H4.25526H4.27053H4.28587H4.30129H4.31679H4.33235H4.34799H4.36371H4.37949H4.39535H4.41128H4.42728H4.44335H4.45949H4.47571H4.49199H4.50835H4.52477H4.54126H4.55782H4.57445H4.59115H4.60792H4.62475H4.64165H4.65862H4.67565H4.69275H4.70992H4.72715H4.74445H4.76181H4.77924H4.79673H4.81428H4.8319H4.84958H4.86733H4.88513H4.903H4.92093H4.93893H4.95698H4.97509H4.99327H5.01151H5.0298H5.04816H5.06657H5.08504H5.10357H5.12216H5.14081H5.15952H5.17828H5.1971H5.21597H5.23491H5.25389H5.27294H5.29204H5.31119H5.3304H5.34966H5.36898H5.38835H5.40777H5.42725H5.44677H5.46635H5.48599H5.50567H5.52541H5.54519H5.56503H5.58492H5.60485H5.62484H5.64488H5.66496H5.68509H5.70528H5.7255H5.74578H5.76611H5.78648H5.80689H5.82736H5.84787H5.86842H5.88902H5.90967H5.93036H5.95109H5.97187H5.99269H6.01356H6.03446H6.05541H6.07641H6.09744H6.11852H6.13963H6.16079H6.18199H6.20323H6.22451H6.24583H6.26718H6.28858H6.31001H6.33149H6.353H6.37455H6.39613H6.41776H6.43941H6.46111H6.48284H6.50461H6.52641H6.54825H6.57012H6.59202H6.61396H6.63594H6.65794H6.67998H6.70205H6.72416H6.74629H6.76846H6.79066H6.81289H6.83515H6.85744H6.87976H6.90211H6.92449H6.9469H6.96934H6.9918H7.01429H7.03681H7.05936H7.08193H7.10454H7.12716H7.14982H7.17249H7.1952H7.21793H7.24068H7.26346H7.28626H7.30908H7.33193H7.3548H7.3777H7.40061H7.42355H7.44651H7.46949H7.49249H7.51551H7.53856H7.56162H7.5847H7.6078H7.63092H7.65406H7.67721H7.70039H7.72358H7.74679H7.77002H7.79326H7.81652H7.83979H7.86308H7.88639H7.90971H7.93304H7.95639H7.97976H8.00313H8.02652H8.04992H8.07334H8.09677H8.12021H8.14366H8.16712H8.19059H8.21408H8.23757H8.26108H8.28459H8.30811H8.33164H8.35518H8.37873H8.40229H8.42585H8.44942H8.473H8.49658H8.52017H8.54377H8.56737H8.59098H8.61459H8.63821H8.66183H8.68545H8.70908H8.73271H8.75635H8.77999H8.80363H8.82727H8.85091H8.87455H8.8982H8.92184H8.94549H8.96914H8.99278H9.01643H9.04007H9.06371H9.08735H9.11099H9.13462H9.15826H9.18189H9.20551H9.22913H9.25275H9.27637H9.29998H9.32358H9.34718H9.37077H9.39436H9.41794H9.44151H9.46508H9.48864H9.51219H9.53573H9.55927H9.58279H9.60631H9.62982H9.65331H9.6768H9.70028H9.72374H9.7472H9.77064H9.79407H9.81749H9.8409H9.8643H9.88768H9.91104H9.9344H9.95774H9.98106H10.0044H10.0277H10.051H10.0742H10.0975H10.1207H10.1439H10.1671H10.1903H10.2135H10.2366H10.2597H10.2828H10.3059H10.329H10.352H10.3751H10.3981H10.4211H10.444H10.467H10.4899H10.5128H10.5357H10.5585H10.5814H10.6042H10.627H10.6497H10.6725H10.6952H10.7179H10.7405H10.7632H10.7858H10.8084H10.8309H10.8534H10.876H10.8984H10.9209H10.9433H10.9657H10.988H11.0104H11.0327H11.0549H11.0772H11.0994H11.1216H11.1437H11.1658H11.1879H11.21H11.232H11.254H11.2759H11.2978H11.3197H11.3416H11.3634H11.3852H11.4069H11.4286H11.4503H11.4719H11.4935H11.5151H11.5366H11.5581H11.5796H11.601H11.6223H11.6437H11.665H11.6862H11.7074H11.7286H11.7497H11.7708H11.7919H11.8129H11.8338H11.8548H11.8756H11.8965H11.9173H11.938H11.9587H11.9794H12H12.0206H12.0413H12.062H12.0827H12.1035H12.1244H12.1453H12.1662H12.1871H12.2081H12.2292H12.2503H12.2714H12.2926H12.3138H12.3351H12.3564H12.3777H12.3991H12.4205H12.4419H12.4634H12.4849H12.5065H12.5281H12.5497H12.5714H12.5931H12.6148H12.6366H12.6584H12.6803H12.7022H12.7241H12.746H12.768H12.79H12.8121H12.8342H12.8563H12.8784H12.9006H12.9228H12.9451H12.9673H12.9896H13.012H13.0343H13.0567H13.0791H13.1016H13.1241H13.1466H13.1691H13.1917H13.2142H13.2369H13.2595H13.2822H13.3048H13.3276H13.3503H13.3731H13.3958H13.4186H13.4415H13.4643H13.4872H13.5101H13.533H13.556H13.579H13.6019H13.625H13.648H13.671H13.6941H13.7172H13.7403H13.7634H13.7866H13.8097H13.8329H13.8561H13.8793H13.9026H13.9258H13.9491H13.9723H13.9956H14.019H14.0423H14.0656H14.089H14.1123H14.1357H14.1591H14.1825H14.2059H14.2294H14.2528H14.2763H14.2997H14.3232H14.3467H14.3702H14.3937H14.4172H14.4408H14.4643H14.4878H14.5114H14.5349H14.5585H14.5821H14.6057H14.6292H14.6528H14.6764H14.7H14.7237H14.7473H14.7709H14.7945H14.8181H14.8418H14.8654H14.889H14.9127H14.9363H14.96H14.9836H15.0072H15.0309H15.0545H15.0782H15.1018H15.1255H15.1491H15.1728H15.1964H15.22H15.2437H15.2673H15.2909H15.3146H15.3382H15.3618H15.3854H15.409H15.4326H15.4562H15.4798H15.5034H15.527H15.5506H15.5742H15.5977H15.6213H15.6448H15.6684H15.6919H15.7154H15.7389H15.7624H15.7859H15.8094H15.8329H15.8564H15.8798H15.9033H15.9267H15.9501H15.9735H15.9969H16.0203H16.0436H16.067H16.0903H16.1136H16.1369H16.1602H16.1835H16.2068H16.23H16.2532H16.2764H16.2996H16.3228H16.346H16.3691H16.3922H16.4153H16.4384H16.4615H16.4845H16.5075H16.5305H16.5535H16.5765H16.5994H16.6223H16.6452H16.6681H16.6909H16.7138H16.7366H16.7593H16.7821H16.8048H16.8275H16.8502H16.8729H16.8955H16.9181H16.9407H16.9632H16.9857H17.0082H17.0307H17.0531H17.0755H17.0979H17.1203H17.1426H17.1649H17.1871H17.2094H17.2316H17.2537H17.2759H17.298H17.32H17.3421H17.3641H17.3861H17.408H17.4299H17.4518H17.4736H17.4954H17.5172H17.5389H17.5606H17.5823H17.6039H17.6255H17.647H17.6685H17.69H17.7114H17.7328H17.7542H17.7755H17.7968H17.818H17.8392H17.8604H17.8815H17.9026H17.9236H17.9446H17.9656H17.9865H18.0073H18.0281H18.0489H18.0697H18.0904H18.111H18.1316H18.1522H18.1727H18.1931H18.2135H18.2339H18.2542H18.2745H18.2947H18.3149H18.3351H18.3551H18.3752H18.3952H18.4151H18.435H18.4548H18.4746H18.4943H18.514H18.5337H18.5532H18.5728H18.5923H18.6117H18.631H18.6504H18.6696H18.6888H18.708H18.7271H18.7461H18.7651H18.784H18.8029H18.8217H18.8405H18.8592H18.8779H18.8964H18.915H18.9335H18.9519H18.9702H18.9885H19.0068H19.0249H19.043H19.0611H19.0791H19.097H19.1149H19.1327H19.1504H19.1681H19.1857H19.2033H19.2208H19.2382H19.2556H19.2729H19.2901H19.3073H19.3244H19.3414H19.3584H19.3753H19.3921H19.4089H19.4256H19.4422H19.4588H19.4753H19.4917H19.508H19.5243H19.5405H19.5567H19.5727H19.5887H19.6047H19.6205H19.6363H19.652H19.6677H19.6832H19.6987H19.7141H19.7295H19.7448H19.76H19.7751H19.7901H19.8051H19.82H19.8348H19.8495H19.8642H19.8788H19.8933H19.9077H19.9221H19.9363H19.9505H19.9646H19.9787H19.9926H20.0065H20.0203H20.034H20.0476H20.0612H20.0746H20.088H20.1013H20.1145H20.1277H20.1407H20.1537H20.1666H20.1793H20.1921H20.2047H20.2172H20.2297H20.242H20.2543H20.2665H20.2786H20.2906H20.3025H20.3144H20.3261H20.3378H20.3494H20.3608H20.3722H20.3835H20.3947H20.4059H20.4169H20.4278H20.4387H20.4494H20.4601H20.4706H20.4811H20.4915H20.5018H20.5119H20.522H20.532H20.5419H20.5517H20.5581C20.6326 5.82394 20.7142 4.7574 20.775 4.00932C20.7752 4.00706 20.7751 4.00609 20.7751 4.00603L20.775 4.00571C20.7748 4.00524 20.7741 4.00367 20.7724 4.00183C20.7716 4.00091 20.7709 4.00034 20.7704 4.00002L20.7692 3.99998ZM3.97169 9.7274C3.87913 9.46587 3.79473 9.2252 3.72352 9H3.73352H3.74571H3.75799H3.77035H3.7828H3.79534H3.80797H3.82067H3.83347H3.84635H3.85931H3.87236H3.88549H3.8987H3.912H3.92538H3.93885H3.95239H3.96602H3.97973H3.99352H4.00739H4.02134H4.03538H4.04949H4.06368H4.07795H4.0923H4.10673H4.12124H4.13582H4.15048H4.16522H4.18004H4.19493H4.2099H4.22494H4.24006H4.25526H4.27053H4.28587H4.30129H4.31679H4.33235H4.34799H4.36371H4.37949H4.39535H4.41128H4.42728H4.44335H4.45949H4.47571H4.49199H4.50835H4.52477H4.54126H4.55782H4.57445H4.59115H4.60792H4.62475H4.64165H4.65862H4.67565H4.69275H4.70992H4.72715H4.74445H4.76181H4.77924H4.79673H4.81428H4.8319H4.84958H4.86733H4.88513H4.903H4.92093H4.93893H4.95698H4.97509H4.99327H5.01151H5.0298H5.04816H5.06657H5.08504H5.10357H5.12216H5.14081H5.15952H5.17828H5.1971H5.21597H5.23491H5.25389H5.27294H5.29204H5.31119H5.3304H5.34966H5.36898H5.38835H5.40777H5.42725H5.44677H5.46635H5.48599H5.50567H5.52541H5.54519H5.56503H5.58492H5.60485H5.62484H5.64488H5.66496H5.68509H5.70528H5.7255H5.74578H5.76611H5.78648H5.80689H5.82736H5.84787H5.86842H5.88902H5.90967H5.93036H5.95109H5.97187H5.99269H6.01356H6.03446H6.05541H6.07641H6.09744H6.11852H6.13963H6.16079H6.18199H6.20323H6.22451H6.24583H6.26718H6.28858H6.31001H6.33149H6.353H6.37455H6.39613H6.41776H6.43941H6.46111H6.48284H6.50461H6.52641H6.54825H6.57012H6.59202H6.61396H6.63594H6.65794H6.67998H6.70205H6.72416H6.74629H6.76846H6.79066H6.81289H6.83515H6.85744H6.87976H6.90211H6.92449H6.9469H6.96934H6.9918H7.01429H7.03681H7.05936H7.08193H7.10454H7.12716H7.14982H7.17249H7.1952H7.21793H7.24068H7.26346H7.28626H7.30908H7.33193H7.3548H7.3777H7.40061H7.42355H7.44651H7.46949H7.49249H7.51551H7.53856H7.56162H7.5847H7.6078H7.63092H7.65406H7.67721H7.70039H7.72358H7.74679H7.77002H7.79326H7.81652H7.83979H7.86308H7.88639H7.90971H7.93304H7.95639H7.97976H8.00313H8.02652H8.04992H8.07334H8.09677H8.12021H8.14366H8.16712H8.19059H8.21408H8.23757H8.26108H8.28459H8.30811H8.33164H8.35518H8.37873H8.40229H8.42585H8.44942H8.473H8.49658H8.52017H8.54377H8.56737H8.59098H8.61459H8.63821H8.66183H8.68545H8.70908H8.73271H8.75635H8.77999H8.80363H8.82727H8.85091H8.87455H8.8982H8.92184H8.94549H8.96914H8.99278H9.01643H9.04007H9.06371H9.08735H9.11099H9.13462H9.15826H9.18189H9.20551H9.22913H9.25275H9.27637H9.29998H9.32358H9.34718H9.37077H9.39436H9.41794H9.44151H9.46508H9.48864H9.51219H9.53573H9.55927H9.58279H9.60631H9.62982H9.65331H9.6768H9.70028H9.72374H9.7472H9.77064H9.79407H9.81749H9.8409H9.8643H9.88768H9.91104H9.9344H9.95774H9.98106H10.0044H10.0277H10.051H10.0742H10.0975H10.1207H10.1439H10.1671H10.1903H10.2135H10.2366H10.2597H10.2828H10.3059H10.329H10.352H10.3751H10.3981H10.4211H10.444H10.467H10.4899H10.5128H10.5357H10.5585H10.5814H10.6042H10.627H10.6497H10.6725H10.6952H10.7179H10.7405H10.7632H10.7858H10.8084H10.8309H10.8534H10.876H10.8984H10.9209H10.9433H10.9657H10.988H11.0104H11.0327H11.0549H11.0772H11.0994H11.1216H11.1437H11.1658H11.1879H11.21H11.232H11.254H11.2759H11.2978H11.3197H11.3416H11.3634H11.3852H11.4069H11.4286H11.4503H11.4719H11.4935H11.5151H11.5366H11.5581H11.5796H11.601H11.6223H11.6437H11.665H11.6862H11.7074H11.7286H11.7497H11.7708H11.7919H11.8129H11.8338H11.8548H11.8756H11.8965H11.9173H11.938H11.9587H11.9794H12H12.0206H12.0413H12.062H12.0827H12.1035H12.1244H12.1453H12.1662H12.1871H12.2081H12.2292H12.2503H12.2714H12.2926H12.3138H12.3351H12.3564H12.3777H12.3991H12.4205H12.4419H12.4634H12.4849H12.5065H12.5281H12.5497H12.5714H12.5931H12.6148H12.6366H12.6584H12.6803H12.7022H12.7241H12.746H12.768H12.79H12.8121H12.8342H12.8563H12.8784H12.9006H12.9228H12.9451H12.9673H12.9896H13.012H13.0343H13.0567H13.0791H13.1016H13.1241H13.1466H13.1691H13.1917H13.2142H13.2369H13.2595H13.2822H13.3048H13.3276H13.3503H13.3731H13.3958H13.4186H13.4415H13.4643H13.4872H13.5101H13.533H13.556H13.579H13.6019H13.625H13.648H13.671H13.6941H13.7172H13.7403H13.7634H13.7866H13.8097H13.8329H13.8561H13.8793H13.9026H13.9258H13.9491H13.9723H13.9956H14.019H14.0423H14.0656H14.089H14.1123H14.1357H14.1591H14.1825H14.2059H14.2294H14.2528H14.2763H14.2997H14.3232H14.3467H14.3702H14.3937H14.4172H14.4408H14.4643H14.4878H14.5114H14.5349H14.5585H14.5821H14.6057H14.6292H14.6528H14.6764H14.7H14.7237H14.7473H14.7709H14.7945H14.8181H14.8418H14.8654H14.889H14.9127H14.9363H14.96H14.9836H15.0072H15.0309H15.0545H15.0782H15.1018H15.1255H15.1491H15.1728H15.1964H15.22H15.2437H15.2673H15.2909H15.3146H15.3382H15.3618H15.3854H15.409H15.4326H15.4562H15.4798H15.5034H15.527H15.5506H15.5742H15.5977H15.6213H15.6448H15.6684H15.6919H15.7154H15.7389H15.7624H15.7859H15.8094H15.8329H15.8564H15.8798H15.9033H15.9267H15.9501H15.9735H15.9969H16.0203H16.0436H16.067H16.0903H16.1136H16.1369H16.1602H16.1835H16.2068H16.23H16.2532H16.2764H16.2996H16.3228H16.346H16.3691H16.3922H16.4153H16.4384H16.4615H16.4845H16.5075H16.5305H16.5535H16.5765H16.5994H16.6223H16.6452H16.6681H16.6909H16.7138H16.7366H16.7593H16.7821H16.8048H16.8275H16.8502H16.8729H16.8955H16.9181H16.9407H16.9632H16.9857H17.0082H17.0307H17.0531H17.0755H17.0979H17.1203H17.1426H17.1649H17.1871H17.2094H17.2316H17.2537H17.2759H17.298H17.32H17.3421H17.3641H17.3861H17.408H17.4299H17.4518H17.4736H17.4954H17.5172H17.5389H17.5606H17.5823H17.6039H17.6255H17.647H17.6685H17.69H17.7114H17.7328H17.7542H17.7755H17.7968H17.818H17.8392H17.8604H17.8815H17.9026H17.9236H17.9446H17.9656H17.9865H18.0073H18.0281H18.0489H18.0697H18.0904H18.111H18.1316H18.1522H18.1727H18.1931H18.2135H18.2339H18.2542H18.2745H18.2947H18.3149H18.3351H18.3551H18.3752H18.3952H18.4151H18.435H18.4548H18.4746H18.4943H18.514H18.5337H18.5532H18.5728H18.5923H18.6117H18.631H18.6504H18.6696H18.6888H18.708H18.7271H18.7461H18.7651H18.784H18.8029H18.8217H18.8405H18.8592H18.8779H18.8964H18.915H18.9335H18.9519H18.9702H18.9885H19.0068H19.0249H19.043H19.0611H19.0791H19.097H19.1149H19.1327H19.1504H19.1681H19.1857H19.2033H19.2208H19.2382H19.2556H19.2729H19.2901H19.3073H19.3244H19.3414H19.3584H19.3753H19.3921H19.4089H19.4256H19.4422H19.4588H19.4753H19.4917H19.508H19.5243H19.5405H19.5567H19.5727H19.5887H19.6047H19.6205H19.6363H19.652H19.6677H19.6832H19.6987H19.7141H19.7295H19.7448H19.76H19.7751H19.7901H19.8051H19.82H19.8348H19.8495H19.8642H19.8788H19.8933H19.9077H19.9221H19.9363H19.9505H19.9646H19.9787H19.9926H20.0065H20.0203H20.034H20.0476H20.0612H20.0746H20.088H20.1013H20.1145H20.1277H20.1407H20.1537H20.1666H20.1793H20.1921H20.2047H20.2172H20.2297H20.242H20.2543H20.2665H20.2766C20.2054 9.22519 20.121 9.46584 20.0284 9.72736L20.0072 9.78734C19.7853 10.4135 19.5 11.2183 19.5 12C19.5 14.5935 19.7662 18.2144 19.9106 19.9913C19.9108 19.9935 19.9107 19.9945 19.9107 19.9945L19.9106 19.9946L19.9101 19.9957C19.9098 19.9963 19.9092 19.9972 19.9083 19.9982L19.9071 19.9993L19.9063 20L19.9047 20H4.09531L4.09375 20C4.09332 19.9996 4.09261 19.9991 4.09175 19.9982C4.09013 19.9964 4.0895 19.9949 4.08939 19.9946L4.08936 19.9945C4.08936 19.9945 4.08921 19.9935 4.0894 19.9913C4.23381 18.2144 4.50002 14.5935 4.50002 12C4.50002 11.2184 4.21481 10.4135 3.99293 9.78737L3.97169 9.7274ZM3.23099 2L20.7692 1.99998C21.9452 1.99998 22.8631 3.00646 22.7685 4.17132C22.6925 5.10595 22.5839 6.53977 22.4984 8.05629C22.4521 8.87638 22.1651 9.68574 21.9402 10.3203L21.9138 10.3947C21.6576 11.1187 21.5 11.6046 21.5 12C21.5 14.5025 21.7594 18.049 21.9041 19.8293C21.9988 20.9949 21.0799 22 19.9047 22H4.09531C2.92012 22 2.00123 20.9949 2.09597 19.8293C2.24066 18.049 2.50002 14.5025 2.50002 12C2.50002 11.6046 2.34249 11.1186 2.08627 10.3946L2.05991 10.3202C1.83496 9.68571 1.54804 8.87636 1.50179 8.05631C1.41627 6.53978 1.30765 5.10596 1.23169 4.17134C1.13702 3.00648 2.05499 2 3.23099 2ZM9.00001 13V15H15V13H9.00001Z" fill="#333333"/>
</svg>

<svg xmlns="http://www.w3.org/2000/svg" width="24" height="24" fill="none" viewBox="0 0 24 24">
  <path fill="#333" fill-rule="evenodd" d="M20.77 4H3.228l-.001.002a.013.013 0 00-.003.004v.003c.06.748.143 1.815.217 2.991h17.117c.075-1.176.156-2.243.217-2.99v-.004s0-.002-.003-.004A.01.01 0 0020.77 4zM3.971 9.727A23.196 23.196 0 013.724 9h16.552c-.07.225-.155.466-.248.727l-.02.06c-.223.627-.508 1.431-.508 2.213 0 2.594.266 6.214.41 7.991v.005l-.002.002V20l-.002.001H4.094l-.002-.002a.012.012 0 01-.003-.003v-.004c.145-1.777.411-5.397.411-7.991 0-.782-.285-1.586-.507-2.213l-.021-.06zM3.23 2h17.538a2.008 2.008 0 012 2.171c-.076.935-.185 2.369-.27 3.885-.047.82-.334 1.63-.559 2.264l-.026.075c-.256.724-.414 1.21-.414 1.605 0 2.502.26 6.049.404 7.83a2.007 2.007 0 01-2 2.17H4.096a2.007 2.007 0 01-1.999-2.17c.145-1.781.404-5.327.404-7.83 0-.395-.158-.881-.414-1.605l-.026-.075c-.225-.634-.512-1.444-.558-2.264-.086-1.516-.194-2.95-.27-3.885A2.008 2.008 0 013.23 2zM9 13v2h6v-2H9z"/>
</svg>
